X:173
T:Brays of Angus. Ru1.173, The
%%VWML:RutherfordVol1-2248-p67-0p67
Z:Transcription by Village Music Project, Steve Mansfield July 2015
F:http://www.village-music-project.org.uk/
F:http://www.vwml.org/record/RutherfordVol1/2248/p67
L:1/4
W:The first Man sets to the 2d Wo. and turns her .| The
W:first Wo. does the same :| Cross over two Cu. Lead
W:up to the Top foot it and cast off .|. foot it to your
W:Partner and turn her right hand and left quite round
W:with the 2d Cu. :|
Q:1/2=150
K:Dm
|:D/D/D FD | F2 c2 | GFED | CDEC |
D/D/D FD | F2 d2 | cAcE | D/D/D D2 :|
|: d>e dA | d2 f2 | g/f/e/d/ cd | c>d ec |
de dA | d2 f2 | g/f/e/d/ ^c/d/e | d2 A2 |
d>e dA | d2 f2 | g/f/e/d/ cd | c>d ec |
df cd | Ac GB | F>G Ed | D/D/D D2 :|]
T:None so pretty. Ru1.174
B:Rutherford's Country Dances Vol 1, 1756
Z:village music project, Steve Mansfield July 2015
M:6/8
L:1/8
W:The first Man turns the 2d Wo.
W:The first Wo. does the same :| Cross over two Cu. .|. Lead
W:up to the Top foot it and cast off :|
Q:3/8=90
K:Em
|:B | efe gab | abg fe^d | efe gab | dBB B2 :|
|: d | BGG cAA | dBB B2d | BGG cAA | dBB e2d |
BGG cAA | dBB g2a | bag fe^d | Bee e2 :|]
